public/svgs/coding/vscode.svg

<svg viewBox="0 0 256 254" xmlns="http://www.w3.org/2000/svg" xmlns:xlink="http://www.w3.org/1999/xlink" width="256" height="254" preserveAspectRatio="xMidYMid"><defs><linearGradient id="c" x1="50%" x2="50%" y1="0%" y2="100%"><stop offset="0%" stop-color="#FFF"/><stop offset="100%" stop-color="#FFF" stop-opacity="0"/></linearGradient><path id="a" d="M180.828 252.605a15.872 15.872 0 0 0 12.65-.486l52.501-25.262a15.94 15.94 0 0 0 9.025-14.364V41.197a15.939 15.939 0 0 0-9.025-14.363l-52.5-25.263a15.877 15.877 0 0 0-18.115 3.084L74.857 96.35l-43.78-33.232a10.614 10.614 0 0 0-13.56.603L3.476 76.494c-4.63 4.211-4.635 11.495-.012 15.713l37.967 34.638-37.967 34.637c-4.623 4.219-4.618 11.502.012 15.714l14.041 12.772a10.614 10.614 0 0 0 13.56.604l43.78-33.233 100.507 91.695a15.853 15.853 0 0 0 5.464 3.571Zm10.464-183.649-76.262 57.889 76.262 57.888V68.956Z"/></defs><mask id="b" fill="#fff"><use xlink:href="#a"/></mask><path fill="#0065A9" d="M246.135 26.873 193.593 1.575a15.885 15.885 0 0 0-18.123 3.08L3.466 161.482c-4.626 4.219-4.62 11.502.012 15.714l14.05 12.772a10.625 10.625 0 0 0 13.569.604L238.229 33.436c6.949-5.271 16.93-.315 16.93 8.407v-.61a15.938 15.938 0 0 0-9.024-14.36Z" /><path fill="#007ACC" d="m246.135 226.816-52.542 25.298a15.887 15.887 0 0 1-18.123-3.08L3.466 92.207c-4.626-4.218-4.62-11.502.012-15.713l14.05-12.773a10.625 10.625 0 0 1 13.569-.603l207.132 157.135c6.949 5.271 16.93.315 16.93-8.408v.611a15.939 15.939 0 0 1-9.024 14.36Z" /><path fill="#1F9CF0" d="M193.428 252.134a15.892 15.892 0 0 1-18.125-3.083c5.881 5.88 15.938 1.715 15.938-6.603V11.273c0-8.318-10.057-12.483-15.938-6.602a15.892 15.892 0 0 1 18.125-3.084l52.533 25.263a15.937 15.937 0 0 1 9.03 14.363V212.51c0 6.125-3.51 11.709-9.03 14.363l-52.533 25.262Z" /><path fill="url(#c)" fill-opacity=".25" d="M180.828 252.605a15.874 15.874 0 0 0 12.65-.486l52.5-25.263a15.938 15.938 0 0 0 9.026-14.363V41.197a15.939 15.939 0 0 0-9.025-14.363L193.477 1.57a15.877 15.877 0 0 0-18.114 3.084L74.857 96.35l-43.78-33.232a10.614 10.614 0 0 0-13.56.603L3.476 76.494c-4.63 4.211-4.635 11.495-.012 15.713l37.967 34.638-37.967 34.637c-4.623 4.219-4.618 11.502.012 15.714l14.041 12.772a10.614 10.614 0 0 0 13.56.604l43.78-33.233 100.506 91.695a15.857 15.857 0 0 0 5.465 3.571Zm10.464-183.65-76.262 57.89 76.262 57.888V68.956Z" /></svg>

<?xml version="1.0" encoding="utf-8"?>
<svg viewBox="0 0 256 254" width="256" height="254" preserveAspectRatio="xMidYMid" xmlns="http://www.w3.org/2000/svg">
  <defs>
    <linearGradient id="c" x1="50%" x2="50%" y1="0%" y2="100%">
      <stop offset="0" stop-color="#FFF"/>
      <stop offset="1" stop-color="#FFF" stop-opacity="0"/>
    </linearGradient>
    <path id="a" d="M180.828 252.605a15.872 15.872 0 0 0 12.65-.486l52.501-25.262a15.94 15.94 0 0 0 9.025-14.364V41.197a15.939 15.939 0 0 0-9.025-14.363l-52.5-25.263a15.877 15.877 0 0 0-18.115 3.084L74.857 96.35l-43.78-33.232a10.614 10.614 0 0 0-13.56.603L3.476 76.494c-4.63 4.211-4.635 11.495-.012 15.713l37.967 34.638-37.967 34.637c-4.623 4.219-4.618 11.502.012 15.714l14.041 12.772a10.614 10.614 0 0 0 13.56.604l43.78-33.233 100.507 91.695a15.853 15.853 0 0 0 5.464 3.571Zm10.464-183.649-76.262 57.889 76.262 57.888V68.956Z"/>
  </defs>
  <path fill="#0065A9" d="M246.135 26.873 193.593 1.575a15.885 15.885 0 0 0-18.123 3.08L3.466 161.482c-4.626 4.219-4.62 11.502.012 15.714l14.05 12.772a10.625 10.625 0 0 0 13.569.604L238.229 33.436c6.949-5.271 16.93-.315 16.93 8.407v-.61a15.938 15.938 0 0 0-9.024-14.36Z"/>
  <path fill="#007ACC" d="m246.135 226.816-52.542 25.298a15.887 15.887 0 0 1-18.123-3.08L3.466 92.207c-4.626-4.218-4.62-11.502.012-15.713l14.05-12.773a10.625 10.625 0 0 1 13.569-.603l207.132 157.135c6.949 5.271 16.93.315 16.93-8.408v.611a15.939 15.939 0 0 1-9.024 14.36Z"/>
  <path fill="#1F9CF0" d="M193.428 252.134a15.892 15.892 0 0 1-18.125-3.083c5.881 5.88 15.938 1.715 15.938-6.603V11.273c0-8.318-10.057-12.483-15.938-6.602a15.892 15.892 0 0 1 18.125-3.084l52.533 25.263a15.937 15.937 0 0 1 9.03 14.363V212.51c0 6.125-3.51 11.709-9.03 14.363l-52.533 25.262Z"/>
  <path fill="url(#c)" fill-opacity=".25" d="M 180.828 252.605 C 184.93 254.204 189.511 254.028 193.478 252.119 L 245.978 226.856 C 251.496 224.2 255.005 218.617 255.004 212.493 L 255.004 41.197 C 255.005 35.073 251.497 29.49 245.979 26.834 L 193.477 1.57 C 187.397 -1.355 180.132 -0.118 175.363 4.654 L 74.857 96.35 L 31.077 63.118 C 27.002 60.025 21.301 60.278 17.517 63.721 L 3.476 76.494 C -1.154 80.705 -1.159 87.989 3.464 92.207 L 41.431 126.845 L 3.464 161.482 C -1.159 165.701 -1.154 172.984 3.476 177.196 L 17.517 189.968 C 21.301 193.411 27.002 193.665 31.077 190.572 L 74.857 157.339 L 175.363 249.034 C 176.917 250.59 178.778 251.807 180.828 252.605 Z M 191.24 69.083 L 191.234 134.363 L 191.24 184.607 C 115.237 126.92 116.096 127.666 115.094 126.836 L 191.24 69.083 Z"/>
</svg>
